dist/img/intro/crypt-logo-2.svg

<svg width="34" height="34" viewBox="0 0 34 34" fill="none" xmlns="http://www.w3.org/2000/svg">
<path opacity="0.22" d="M13.3209 16.7321L13.0264 16.4357C12.8035 16.2131 12.4205 16.3707 12.4205 16.6864V20.9192C12.4205 21.1147 12.5809 21.2737 12.7769 21.2737H17.0111C17.3268 21.2737 17.4857 20.8914 17.2612 20.6691C17.1228 20.5307 17.1228 20.3065 17.2612 20.1684L21.7647 15.6514C21.9035 15.5138 21.9035 15.2897 21.7647 15.1507L21.3544 14.742C21.1315 14.5193 21.2904 14.1369 21.6052 14.1369H25.8368C26.0325 14.1369 26.1926 14.2958 26.1926 14.4914V18.7239C26.1926 19.0395 25.8089 19.1976 25.5855 18.9746L25.3002 18.6895C25.1609 18.5472 24.9368 18.5472 24.8004 18.6895L17.2076 26.2781C17.0697 26.4162 16.846 26.4162 16.7063 26.2781L7.41697 16.9895C7.27733 16.8498 7.27733 16.6254 7.41697 16.4867L20.2766 3.62871C20.4147 3.49029 20.4147 3.26446 20.2766 3.12665L17.2527 0.103357C17.1143 -0.0344522 16.8902 -0.0344522 16.7511 0.103357L0.103365 16.7503C-0.0344551 16.8887 -0.0344551 17.1145 0.103365 17.2523L16.7494 33.8968C16.8878 34.0344 17.1138 34.0344 17.2516 33.8968L33.8968 17.2523C34.0344 17.1139 34.0344 16.8893 33.8968 16.7514L24.1038 6.95906C23.9668 6.82125 23.7415 6.82125 23.6028 6.95906L13.8248 16.7322C13.6852 16.8718 13.4605 16.8718 13.3209 16.7322V16.7321Z" fill="#CDCFFF"/>
</svg>

<svg width="34" height="34" viewBox="0 0 34 34" fill="none" xmlns="http://www.w3.org/2000/svg"><path opacity=".22" d="M13.32 16.732l-.294-.296a.355.355 0 00-.605.25v4.233c0 .196.16.355.356.355h4.234a.354.354 0 00.25-.605.354.354 0 010-.5l4.504-4.518a.353.353 0 000-.5l-.41-.409a.355.355 0 01.25-.605h4.232c.195 0 .356.159.356.354v4.233a.356.356 0 01-.608.25l-.285-.285a.346.346 0 00-.5 0l-7.592 7.59a.355.355 0 01-.502 0l-9.289-9.29a.354.354 0 010-.502l12.86-12.858a.356.356 0 000-.502L17.253.103a.356.356 0 00-.502 0L.103 16.75a.356.356 0 000 .502L16.75 33.897a.357.357 0 00.503 0l16.645-16.645a.356.356 0 000-.5l-9.793-9.793a.355.355 0 00-.501 0l-9.778 9.773a.355.355 0 01-.504 0z" fill="#CDCFFF"/></svg>
